X: 198
T:The Wedding Gift
M:3/4
L:1/8
Q:140
C:Dave Panting
R:Waltz
Z:Gerry Strong,  18/10/1999
K:D
A|:D4-D A|F A-AB (3cBA)|d4 cA|BG d2-dB|D4-D A|FA-AB (3cBA)|dB G2
(3FAF)|E4-EA|D4-D A|F A-AB (3cBA)|d4 cA|BG d2-dB|AF D3 A|BG d2
(3FGF)|E4-ED|D4-DA:|
f2d2A2|e4 cA|d4 cA|BG d3 A|f2d2A2|e4 cA|dB G2 (3FGF)|E4-EA|f3 d A2|e4 cA
|d4
cA|BG d3 B|AF D3 A|BG d2 (3FGF)|E4-ED|1D4-DA:|2D6||
<end>
<start>
